icons/cloud-16.svg

<svg width="16" height="16" viewBox="0 0 16 16" fill="none" xmlns="http://www.w3.org/2000/svg">
<rect width="16" height="16" fill="white"/>
<path fill-rule="evenodd" clip-rule="evenodd" d="M3.5082 7.00001C4.26086 7.00169 4.95861 7.23428 5.52984 7.63704C5.86837 7.87572 5.94932 8.34365 5.71063 8.68218C5.47195 9.02071 5.00402 9.10165 4.66549 8.86296C4.34284 8.63548 3.94351 8.5 3.5 8.5C2.39543 8.5 1.5 9.39543 1.5 10.5C1.5 11.6046 2.39543 12.5 3.5 12.5H11.5C13.1569 12.5 14.5 11.1569 14.5 9.5C14.5 8.18178 13.6498 7.06215 12.4678 6.65954C12.4891 6.85323 12.5 7.05024 12.5 7.25C12.5 7.64914 12.4563 8.03843 12.3729 8.41304C12.2828 8.81735 11.8821 9.07211 11.4777 8.98206C11.0734 8.89202 10.8187 8.49127 10.9087 8.08696C10.9683 7.81929 11 7.53934 11 7.25C11 5.17893 9.32107 3.5 7.25 3.5C5.26294 3.5 3.63684 5.0455 3.5082 7.00001ZM12.0153 5.02852C14.2729 5.28033 16 7.1697 16 9.5C16 12.0047 14.0047 14 11.5 14H3.5C1.54755 14 0 12.4525 0 10.5C0 9.08616 0.81149 7.88464 2.00059 7.32933C2.0002 7.30293 2 7.27648 2 7.25C2 4.3311 4.3311 2 7.25 2C9.37291 2 11.1849 3.23307 12.0153 5.02852Z" fill="#24292F"/>
</svg>

<svg xmlns="http://www.w3.org/2000/svg" width="16" height="16" viewBox="0 0 16 16"><path d="M0 0h16v16H0z"/><path fill-rule="evenodd" d="M3.508 7a3.51 3.51 0 012.022.637.75.75 0 11-.865 1.226A2.008 2.008 0 003.5 8.5a2 2 0 100 4h8a3 3 0 00.968-5.84 5.4 5.4 0 01-.095 1.753.75.75 0 01-1.464-.326c.06-.268.091-.548.091-.837A3.75 3.75 0 003.508 7zm8.507-1.971A4.472 4.472 0 0116 9.5c0 2.505-1.995 4.5-4.5 4.5h-8A3.475 3.475 0 010 10.5c0-1.414.811-2.615 2-3.17v-.08A5.225 5.225 0 017.25 2a5.224 5.224 0 014.765 3.029z"/></svg>
